docs/img/information.svg

<svg width="149" height="149" viewBox="0 0 149 149" fill="none" xmlns="http://www.w3.org/2000/svg">
<path fill-rule="evenodd" clip-rule="evenodd" d="M55.4703 26.2867L53.3123 28.4446C52.9462 28.8108 52.9452 29.4052 53.3123 29.7724L55.4703 31.9304C55.8364 32.2965 56.432 32.2965 56.7981 31.9304L58.956 29.7724C59.3222 29.4063 59.3222 28.8108 58.956 28.4446L56.7981 26.2867C56.4309 25.9195 55.8364 25.9205 55.4703 26.2867ZM62.1093 32.9257L59.9514 35.0837C59.5852 35.4498 59.5842 36.0443 59.9503 36.4104L62.1083 38.5684C62.4755 38.9356 63.0699 38.9345 63.4361 38.5684L65.594 36.4104C65.9602 36.0443 65.9612 35.4498 65.594 35.0826L63.4361 32.9247C63.0699 32.5585 62.4755 32.5596 62.1093 32.9257ZM68.7473 39.5637L66.5893 41.7216C66.2232 42.0878 66.2222 42.6822 66.5893 43.0494L68.7462 45.2063C69.1134 45.5735 69.7079 45.5725 70.074 45.2063L72.232 43.0484C72.5981 42.6822 72.5992 42.0878 72.232 41.7206L70.0751 39.5637C69.7079 39.1965 69.1134 39.1975 68.7473 39.5637ZM75.3853 46.2017L73.2273 48.3596C72.8612 48.7257 72.8601 49.3202 73.2273 49.6874L75.3853 51.8454C75.7514 52.2115 76.3469 52.2115 76.7131 51.8454L78.871 49.6874C79.2372 49.3213 79.2372 48.7257 78.871 48.3596L76.7131 46.2017C76.3459 45.8345 75.7514 45.8355 75.3853 46.2017ZM43.6863 77.9006L41.5294 80.0575C41.1632 80.4237 41.1622 81.0181 41.5294 81.3853L43.6873 83.5433C44.0535 83.9094 44.649 83.9094 45.0151 83.5433L47.172 81.3864C47.5392 81.0192 47.5392 80.4237 47.1731 80.0575L45.0151 77.8996C44.6479 77.5324 44.0535 77.5334 43.6863 77.9006ZM82.0232 52.8396L79.8653 54.9976C79.4991 55.3637 79.4992 55.9592 79.8663 56.3264L82.0232 58.4833C82.3904 58.8505 82.9849 58.8495 83.351 58.4833L85.509 56.3254C85.8751 55.9592 85.8762 55.3648 85.509 54.9976L83.3521 52.8407C82.9849 52.4735 82.3894 52.4735 82.0232 52.8396ZM50.3243 84.5386L48.1674 86.6955C47.8012 87.0617 47.8012 87.6572 48.1684 88.0244L50.3253 90.1813C50.6925 90.5485 51.287 90.5474 51.6531 90.1813L53.81 88.0244C54.1772 87.6572 54.1783 87.0627 53.8111 86.6955L51.6542 84.5386C51.287 84.1714 50.6915 84.1714 50.3243 84.5386ZM39.7039 48.1934C31.0742 39.5637 41.5294 31.7641 41.5294 31.7641L54.4739 18.8196L92.8109 57.1566L52.6495 96.9855L41.8619 86.1978C40.2847 84.6207 32.8997 79.8913 41.8608 70.9302C50.823 61.968 48.3336 56.823 39.7039 48.1934Z" fill="#4CC7FC"/>
<mask id="mask0_0_604" style="mask-type:alpha" maskUnits="userSpaceOnUse" x="0" y="0" width="149" height="148">
<path fill-rule="evenodd" clip-rule="evenodd" d="M0.74074 72.4053L76.271 147.935L148.519 75.6879L72.9883 0.157715L0.74074 72.4053Z" fill="white"/>
</mask>
<g mask="url(#mask0_0_604)">
<path fill-rule="evenodd" clip-rule="evenodd" d="M47.0056 98.9763L55.4691 107.44L101.938 60.9708L93.4746 52.5073L47.0056 98.9763Z" fill="#0C64FD"/>
<path fill-rule="evenodd" clip-rule="evenodd" d="M112.56 55.3298C110.727 57.1626 110.727 60.1339 112.56 61.9667L127.497 76.904C129.33 78.7369 132.301 78.7369 134.134 76.904L138.615 72.4229C140.448 70.5901 140.448 67.6189 138.615 65.786L123.678 50.8487C121.845 49.0159 118.874 49.0159 117.041 50.8487L112.56 55.3298Z" fill="#3EB5ED"/>
<path fill-rule="evenodd" clip-rule="evenodd" d="M50.602 109.877L78.2618 137.536L131.37 84.4284L103.71 56.7686L50.602 109.877Z" fill="#20B1FE"/>
<path fill-rule="evenodd" clip-rule="evenodd" d="M129.488 71.0405C128.756 71.7728 128.754 72.9628 129.488 73.6961C130.22 74.4284 131.41 74.4274 132.142 73.6951L136.015 69.8221C136.749 69.0888 136.748 67.9009 136.015 67.1686C135.282 66.4353 134.094 66.4342 133.361 67.1676L129.488 71.0405Z" fill="#4BC9EF"/>
<path fill-rule="evenodd" clip-rule="evenodd" d="M125.062 66.6152C124.33 67.3475 124.329 68.5375 125.062 69.2708C125.795 70.0042 126.985 70.0031 127.718 69.2708L131.591 65.3979C132.324 64.6645 132.323 63.4767 131.59 62.7433C130.856 62.01 129.668 62.0089 128.935 62.7423L125.062 66.6152Z" fill="#4BC9EF"/>
<path fill-rule="evenodd" clip-rule="evenodd" d="M120.747 62.3003C120.014 63.0326 120.013 64.2225 120.747 64.9559C121.48 65.6892 122.67 65.6882 123.402 64.9559L127.275 61.0829C128.008 60.3496 128.007 59.1617 127.274 58.4284C126.541 57.695 125.353 57.694 124.62 58.4273L120.747 62.3003Z" fill="#4BC9EF"/>
<path fill-rule="evenodd" clip-rule="evenodd" d="M115.99 57.5425C115.257 58.2748 115.256 59.4647 115.99 60.1981C116.723 60.9314 117.913 60.9304 118.645 60.1981L122.518 56.3251C123.252 55.5918 123.251 54.4039 122.517 53.6706C121.784 52.9372 120.596 52.9362 119.863 53.6695L115.99 57.5425Z" fill="#4BC9EF"/>
<path fill-rule="evenodd" clip-rule="evenodd" d="M50.602 109.877L64.5418 123.816L117.65 70.7084L103.71 56.7686L50.602 109.877Z" fill="#20B1FE"/>
<path fill-rule="evenodd" clip-rule="evenodd" d="M44.4074 109.433C42.5745 111.266 42.5745 114.237 44.4084 116.071L72.9531 144.616C74.7859 146.448 77.7572 146.448 79.59 144.616L80.9178 143.288C82.7506 141.455 82.7517 138.483 80.9189 136.65L52.3742 108.105C50.5403 106.271 47.568 106.272 45.7352 108.105L44.4074 109.433Z" fill="#1E90FD"/>
<path fill-rule="evenodd" clip-rule="evenodd" d="M102.824 51.0154C100.992 52.8482 100.991 55.8205 102.824 57.6544L131.369 86.1991C133.202 88.0319 136.174 88.0309 138.007 86.198L139.335 84.8702C141.168 83.0374 141.168 80.0661 139.335 78.2333L110.79 49.6887C108.956 47.8548 105.985 47.8548 104.152 49.6876L102.824 51.0154Z" fill="#1E90FD"/>
</g>
</svg>

<svg width="149" height="149" viewBox="0 0 149 149" fill="none" xmlns="http://www.w3.org/2000/svg"><path fill-rule="evenodd" clip-rule="evenodd" d="M55.47 26.287l-2.158 2.158a.939.939 0 000 1.327l2.158 2.158a.94.94 0 001.328 0l2.158-2.158a.94.94 0 000-1.327l-2.158-2.158a.939.939 0 00-1.328 0zm6.64 6.639l-2.159 2.158a.938.938 0 000 1.326l2.157 2.158a.939.939 0 001.328 0l2.158-2.158a.939.939 0 000-1.327l-2.158-2.158a.939.939 0 00-1.327 0zm6.637 6.638l-2.158 2.158a.939.939 0 000 1.327l2.157 2.157a.939.939 0 001.328 0l2.158-2.158a.939.939 0 000-1.327l-2.157-2.157a.939.939 0 00-1.328 0zm6.638 6.638l-2.158 2.158a.939.939 0 000 1.327l2.158 2.158a.94.94 0 001.328 0l2.158-2.158a.94.94 0 000-1.327l-2.158-2.158a.939.939 0 00-1.328 0zM43.686 77.9l-2.157 2.157a.939.939 0 000 1.327l2.158 2.158a.94.94 0 001.328 0l2.157-2.157a.94.94 0 00.001-1.328L45.015 77.9a.94.94 0 00-1.329 0zm38.337-25.06l-2.158 2.158a.94.94 0 00.001 1.328l2.157 2.157a.939.939 0 001.328 0l2.158-2.158a.939.939 0 000-1.327l-2.157-2.157a.94.94 0 00-1.329-.001zM50.324 84.539l-2.157 2.156a.94.94 0 00.001 1.33l2.157 2.156a.939.939 0 001.328 0l2.157-2.157a.94.94 0 00.001-1.329l-2.157-2.156a.94.94 0 00-1.33 0zm-10.62-36.346c-8.63-8.63 1.825-16.429 1.825-16.429L54.474 18.82 92.81 57.157 52.649 96.986 41.863 86.198C40.285 84.62 32.9 79.89 41.86 70.93c8.962-8.962 6.473-14.107-2.157-22.737z" fill="#4CC7FC"/><mask id="mask0_0_604" style="mask-type:alpha" maskUnits="userSpaceOnUse" x="0" y="0" width="149" height="148"><path fill-rule="evenodd" clip-rule="evenodd" d="M.74 72.405l75.531 75.53 72.248-72.247L72.989.158.74 72.405z" fill="#fff"/></mask><g mask="url(#mask0_0_604)" fill-rule="evenodd" clip-rule="evenodd"><path d="M47.006 98.976l8.463 8.464 46.469-46.47-8.463-8.463-46.47 46.47z" fill="#0C64FD"/><path d="M112.56 55.33a4.693 4.693 0 000 6.637l14.937 14.937a4.693 4.693 0 006.637 0l4.481-4.481a4.693 4.693 0 000-6.637l-14.937-14.937a4.693 4.693 0 00-6.637 0l-4.481 4.48z" fill="#3EB5ED"/><path d="M50.602 109.877l27.66 27.659 53.108-53.108-27.66-27.66-53.108 53.109z" fill="#20B1FE"/><path d="M129.488 71.04a1.878 1.878 0 002.654 2.655l3.873-3.873a1.875 1.875 0 000-2.653 1.876 1.876 0 00-2.654-.001l-3.873 3.872zm-4.426-4.425a1.88 1.88 0 002.656 2.656l3.873-3.873a1.877 1.877 0 00-2.656-2.656l-3.873 3.873zm-4.315-4.315a1.877 1.877 0 102.655 2.656l3.873-3.873a1.877 1.877 0 00-2.655-2.656l-3.873 3.873zm-4.757-4.758a1.877 1.877 0 102.655 2.656l3.873-3.873a1.875 1.875 0 00-.001-2.654 1.876 1.876 0 00-2.654-.002l-3.873 3.873z" fill="#4BC9EF"/><path d="M50.602 109.877l13.94 13.939 53.108-53.108-13.94-13.94-53.108 53.109z" fill="#20B1FE"/><path d="M44.407 109.433a4.693 4.693 0 00.001 6.638l28.545 28.545a4.694 4.694 0 006.637 0l1.328-1.328a4.694 4.694 0 000-6.638l-28.544-28.545a4.694 4.694 0 00-6.639 0l-1.328 1.328zm58.417-58.418a4.696 4.696 0 000 6.64l28.545 28.544a4.694 4.694 0 006.638-.001l1.328-1.328a4.693 4.693 0 000-6.637L110.79 49.69a4.693 4.693 0 00-6.638-.001l-1.328 1.327z" fill="#1E90FD"/></g></svg>
